static/images/user-logos/tessel.svg

<svg height="139" viewBox="0 0 469.834 139" width="469.834" xmlns="http://www.w3.org/2000/svg" xmlns:xlink="http://www.w3.org/1999/xlink"><filter id="a" color-interpolation-filters="sRGB"><feColorMatrix result="color1" type="hueRotate" values="180"/><feColorMatrix result="color2" values="-1 0 0 0 1 0 -1 0 0 1 0 0 -1 0 1 -0.21 -0.72 -0.07 2 0"/></filter><filter id="b" color-interpolation-filters="sRGB"><feColorMatrix result="color1" type="hueRotate" values="180"/><feColorMatrix result="color2" values="-1 0 0 0 1 0 -1 0 0 1 0 0 -1 0 1 -0.21 -0.72 -0.07 2 0"/></filter><clipPath id="c"><path d="m3.997 1.998h135.06v135.06h-135.06z"/></clipPath><clipPath id="d"><path d="m3.999 2h135.058v135.058h-135.058z"/></clipPath><clipPath id="e"><path d="m3.999 2h135.058v135.058h-135.058z"/></clipPath><g fill="#fff" filter="url(#a)"><path d="m168.887 58.971h8.144v36.074h-8.144z"/><path d="m150.143 51.9h45.796v8.146h-45.796z"/><path d="m210.301 60.046h34.242v-8.146h-38.338c-2.533 0-4.047 1.532-4.047 4.1v34.891c0 2.562 1.551 4.154 4.047 4.154h38.395v-8.145h-34.299z"/><path d="m208.214 67.774h29.981v8.146h-29.981z"/><path d="m288.072 69.509c-3.218 0-6.504.084-9.685.164-3.158.08-6.426.161-9.603.161-9.443 0-9.443-1.455-9.443-3.863v-2.224c0-3.048 0-4.189 12.206-4.189h8.18c11.697 0 12.86 1.119 12.86 3.864v2.312h8.146v-2.745c0-9.951-6.515-11.63-21.111-11.63h-7.801c-14.546 0-20.627 1.722-20.627 12.388v2.276c0 11.033 8.69 11.955 17.591 11.955 2.722 0 5.483-.066 8.246-.137 2.737-.066 5.475-.135 8.169-.135 7.497 0 7.497.924 7.497 2.943v2.168c0 3.459 0 4.623-12.858 4.623h-8.291c-12.534 0-12.534-1.174-12.534-5.545v-2.854h-8.142v2.963c0 11.576 5.458 13.635 20.837 13.635h8.235c15.421 0 20.896-1.961 20.896-12.986v-2.438c0-4.883-2.213-10.706-12.768-10.706zm57.273 0c-3.214 0-6.504.084-9.685.164-3.158.08-6.426.161-9.603.161-9.442 0-9.442-1.455-9.442-3.863v-2.224c0-3.048 0-4.189 12.205-4.189h8.181c11.696 0 12.858 1.119 12.858 3.864v2.312h8.146v-2.745c0-9.951-6.513-11.63-21.111-11.63h-7.801c-14.546 0-20.626 1.722-20.626 12.388v2.276c0 11.033 8.689 11.955 17.59 11.955 2.721 0 5.483-.066 8.247-.137 2.738-.066 5.475-.135 8.168-.135 7.497 0 7.497.924 7.497 2.943v2.168c0 3.459 0 4.623-12.858 4.623h-8.291c-12.532 0-12.532-1.174-12.532-5.545v-2.854h-8.144v2.963c0 11.576 5.458 13.635 20.839 13.635h8.234c15.421 0 20.895-1.961 20.895-12.986v-2.438c0-4.883-2.213-10.706-12.767-10.706zm29.03-9.463h34.241v-8.146h-38.341c-2.533 0-4.047 1.532-4.047 4.1v34.891c0 2.562 1.551 4.154 4.047 4.154h38.394v-8.145h-34.294z"/><path d="m372.287 67.774h29.977v8.146h-29.977z"/><path d="m423.898 86.9v-35h-8.144v38.99c0 2.562 1.548 4.154 4.043 4.154h36.229v-8.144z"/></g><g filter="url(#b)"><g fill="none" stroke="#fff" stroke-linecap="round" stroke-miterlimit="10" stroke-width="3.75"><g clip-path="url(#c)"><path clip-path="url(#d)" d="m117.773 100.585a4.574 4.574 0 1 1 9.149 0 4.574 4.574 0 1 1 -9.149 0z"/><circle clip-path="url(#d)" cx="20.708" cy="100.585" r="4.574"/><circle clip-path="url(#d)" cx="71.525" cy="11.563" r="4.574"/></g><path clip-path="url(#c)" d="m56.611 20.468-35.9 21.436-.003 29.841"/><path clip-path="url(#c)" d="m122.345 89.527.002-47.622-30.779-18.376"/></g><g clip-path="url(#c)"><path d="m33.608 108.032 37.918 21.893 27.94-16.131" style="fill:none;stroke:#fff;stroke-width:3.75;stroke-linecap:round;stroke-miterlimit:10;clip-path:url(#e)"/></g><g fill="none" stroke="#fff" stroke-linecap="round" stroke-miterlimit="10" stroke-width="3.75"><path clip-path="url(#c)" d="m122.345 89.527.002 3.433"/><path clip-path="url(#c)" d="m33.608 108.032-6.284-3.723"/><path clip-path="url(#c)" d="m56.611 20.468 8.387-5.008"/></g><g fill="#fff"><path clip-path="url(#c)" d="m45.554 51.996v11.855h16.798v33.598h7.974v-45.453z"/><path clip-path="url(#c)" d="m97.5 51.996h-25.054v45.45h7.979v-33.595h17.075z"/></g></g></svg>

<svg xmlns="http://www.w3.org/2000/svg" xmlns:xlink="http://www.w3.org/1999/xlink" width="469.834" height="139" viewBox="0 0 469.834 139"><defs><filter id="a" color-interpolation-filters="sRGB"><feColorMatrix type="hueRotate" values="180" result="color1"/><feColorMatrix values="-1 0 0 0 1 0 -1 0 0 1 0 0 -1 0 1 -0.21 -0.72 -0.07 2 0" result="color2"/></filter><filter id="b" color-interpolation-filters="sRGB"><feColorMatrix type="hueRotate" values="180" result="color1"/><feColorMatrix values="-1 0 0 0 1 0 -1 0 0 1 0 0 -1 0 1 -0.21 -0.72 -0.07 2 0" result="color2"/></filter></defs><g filter="url(#a)" fill="#FFF"><path d="M168.887 58.971H177.031V95.04499999999999H168.887z"/><path d="M150.143 51.9H195.939V60.046H150.143z"/><path d="M210.301 60.046h34.242V51.9h-38.338c-2.533 0-4.047 1.532-4.047 4.1v34.891c0 2.562 1.551 4.154 4.047 4.154H244.6V86.9h-34.299V60.046z"/><path d="M208.214 67.774H238.195V75.92H208.214z"/><path d="M288.072 69.509c-3.218 0-6.504.084-9.685.164-3.158.08-6.426.161-9.603.161-9.443 0-9.443-1.455-9.443-3.863v-2.224c0-3.048 0-4.189 12.206-4.189h8.18c11.697 0 12.86 1.119 12.86 3.864v2.312h8.146v-2.745c0-9.951-6.515-11.63-21.111-11.63h-7.801c-14.546 0-20.627 1.722-20.627 12.388v2.276c0 11.033 8.69 11.955 17.591 11.955 2.722 0 5.483-.066 8.246-.137 2.737-.066 5.475-.135 8.169-.135 7.497 0 7.497.924 7.497 2.943v2.168c0 3.459 0 4.623-12.858 4.623h-8.291c-12.534 0-12.534-1.174-12.534-5.545v-2.854h-8.142v2.963c0 11.576 5.458 13.635 20.837 13.635h8.235c15.421 0 20.896-1.961 20.896-12.986v-2.438c0-4.883-2.213-10.706-12.768-10.706zm57.273 0c-3.214 0-6.504.084-9.685.164-3.158.08-6.426.161-9.603.161-9.442 0-9.442-1.455-9.442-3.863v-2.224c0-3.048 0-4.189 12.205-4.189h8.181c11.696 0 12.858 1.119 12.858 3.864v2.312h8.146v-2.745c0-9.951-6.513-11.63-21.111-11.63h-7.801c-14.546 0-20.626 1.722-20.626 12.388v2.276c0 11.033 8.689 11.955 17.59 11.955 2.721 0 5.483-.066 8.247-.137 2.738-.066 5.475-.135 8.168-.135 7.497 0 7.497.924 7.497 2.943v2.168c0 3.459 0 4.623-12.858 4.623h-8.291c-12.532 0-12.532-1.174-12.532-5.545v-2.854h-8.144v2.963c0 11.576 5.458 13.635 20.839 13.635h8.234c15.421 0 20.895-1.961 20.895-12.986v-2.438c0-4.883-2.213-10.706-12.767-10.706zm29.03-9.463h34.241V51.9h-38.341c-2.533 0-4.047 1.532-4.047 4.1v34.891c0 2.562 1.551 4.154 4.047 4.154h38.394V86.9h-34.294V60.046z"/><path d="M372.287 67.774H402.26399999999995V75.92H372.287z"/><path d="M423.898 86.9v-35h-8.144v38.99c0 2.562 1.548 4.154 4.043 4.154h36.229V86.9h-32.128z"/></g><g filter="url(#b)"><defs><path id="c" d="M3.997 1.998H139.05700000000002V137.058H3.997z"/></defs><clipPath id="d"><use xlink:href="#c" overflow="visible"/></clipPath><g clip-path="url(#d)"><defs><path id="e" d="M3.999 2H139.057V137.058H3.999z"/></defs><clipPath id="f"><use xlink:href="#e" overflow="visible"/></clipPath><path clip-path="url(#f)" fill="none" stroke="#FFF" stroke-width="3.75" stroke-linecap="round" stroke-miterlimit="10" d="M117.773 100.585a4.574 4.574 0 1 1 9.149 0 4.574 4.574 0 1 1-9.149 0z"/><circle clip-path="url(#f)" fill="none" stroke="#FFF" stroke-width="3.75" stroke-linecap="round" stroke-miterlimit="10" cx="20.708" cy="100.585" r="4.574"/><circle clip-path="url(#f)" fill="none" stroke="#FFF" stroke-width="3.75" stroke-linecap="round" stroke-miterlimit="10" cx="71.525" cy="11.563" r="4.574"/></g><path clip-path="url(#d)" fill="none" stroke="#FFF" stroke-width="3.75" stroke-linecap="round" stroke-miterlimit="10" d="M56.611 20.468L20.711 41.904 20.708 71.745"/><path clip-path="url(#d)" fill="none" stroke="#FFF" stroke-width="3.75" stroke-linecap="round" stroke-miterlimit="10" d="M122.345 89.527L122.347 41.905 91.568 23.529"/><g clip-path="url(#d)"><defs><path id="g" d="M3.999 2H139.057V137.058H3.999z"/></defs><clipPath id="h"><use xlink:href="#g" overflow="visible"/></clipPath><path clip-path="url(#h)" fill="none" stroke="#FFF" stroke-width="3.75" stroke-linecap="round" stroke-miterlimit="10" d="M33.608 108.032L71.526 129.925 99.466 113.794"/></g><path clip-path="url(#d)" fill="none" stroke="#FFF" stroke-width="3.75" stroke-linecap="round" stroke-miterlimit="10" d="M122.345 89.527L122.347 92.96"/><path clip-path="url(#d)" fill="none" stroke="#FFF" stroke-width="3.75" stroke-linecap="round" stroke-miterlimit="10" d="M33.608 108.032L27.324 104.309"/><path clip-path="url(#d)" fill="none" stroke="#FFF" stroke-width="3.75" stroke-linecap="round" stroke-miterlimit="10" d="M56.611 20.468L64.998 15.46"/><path clip-path="url(#d)" fill="#FFF" d="M45.554 51.996L45.554 63.851 62.352 63.851 62.352 97.449 70.326 97.449 70.326 51.996z"/><path clip-path="url(#d)" fill="#FFF" d="M97.5 51.996L72.446 51.996 72.446 97.446 80.425 97.446 80.425 63.851 97.5 63.851z"/></g></svg>
